X: 9769
T: Della The Diamond
R: jig
M: 6/8
K: Gmajor
DEG GAB|deg ~e2 d|gde deB|d2 B {c}AGE|
DEG GAB|dBd ~e2 d|B/c/de dBG|~A3 BGE||
DEG GAB|deg ~e2 d|gde deB|d/e/dB {c}AGE|
~D3 GAB|d z d ~e2 d|B/c/de dBG|~A3 AB/c/d||
e z e edB|d{a}ed AGE|~G2 A ~G2 A|~G2 A {c}GED|
{a}ede {f}g z e|edB AB/c/d|edd dBG|~A3 AB/c/d||
{a}ede (fg) e|edB AGE|~G2 A ~G2 A|~G2 A {c}GED|
{a}ede {f}g z e|edB AB/c/d|{a}edB dB(G|1 A) z (A B)GE||2 A z A ~e2 d||

